X: 98
T:Gan Ainm
M:6/8
L:1/8
R:Jig
D:Session tape - Belfast 1984
Z:Bernie Stocks
K:G
agf gfe | fed B2A |1 agf gfe | fdd d3 :|2 GAB dBA | GEE E3 |: \
GAB d2B | dBe dBA |1 GAB dBA | Bee e3 :|2 GAB dBA | GEE E3 ||
<end>
<start>
